X:1
T:O Come All ye Faithful
T:O Come All ye Faithful
L:1/8
M:4/4
K:G
V:1 treble nm="Violin" snm="Vln."
V:1
 G2 G4 D2 | G2 | A4 D4 | B2 A2 B2 c2 | B4 A2 G2 | G4 F2 E2 | F2 G2 A2 B2 | F4 E3 D | D8 | %9
 d4 c2 B2 | c4 B4 | A2 B2 G2 A2 | F3 E D2 G2 | G2 F2 G2 A2 | G4 D2 B2 | B2 A2 B2 c2 | B4 A4 | %17
 B2 c2 B2 A2 | G2 F4 G2 | c2 B4 A2- | AG G6 | g4 d2 g2 | a4 d4 | b2 a2 b2 c'2 | b4 a2 g2 | %25
 g4 f2 e2 | f2 g2 a2 b2 | f4 e3 d | d8 | d'4 c'2 b2 | c'4 b4 | a2 b2 g2 a2 | f3 e d2 g2 | %33
 g2 f2 g2 a2 | g4 d2 b2 | b2 a2 b2 c'2 | b4 a2 b2 | c'2 b2 a2 g2 | f4 g2 c'2 | b4 a3 g | g8 | %41
 g4 d2 g2 | a4 d4 | b2 a2 b2 c'2 | b4 a2 g2 | g4 f2 e2 | f2 g2 a2 b2 | f4 e3 d | d8 | d'4 c'2 b2 | %50
 c'4 b4 | a2 b2 g2 a2 | f3 e d2 g2 | g2 f2 g2 a2 | g4 d2 b2 | b2 a2 b2 c'2 | b4 a2 b2 | %57
 c'2 b2 a2 g2 | f4 g2 c'2 | b4 a3 g | g8 |] %61

